!!!!SEGMENT: pl-gd--ee-1638--003-024_marenzio-luca--madrigali-a-quatro-voci-su-l-carro-de-la-mente.krn
!!!cenid: 15xx:998
!!!COM: Marenzio, Luca
!!!COM-rismID: pe30003955
!!!CDT: ~1553-1599/08/22
!!!CNT: Italian
!!!GTL: Madrigali a quatro voci
!!!OTL: Su’l carro de la mente
!!!OMV: 024
!!!PDT: 1587
!!!AGN:
!!!SMS-siglum: PL-GD
!!!SMS-shelfmark: Ee 1638
!!!SMS-shelfwork: 003-024 G
!!!SMS-variant:
!!!SMS-altvar:
!!!NIFC-rismSourceID: 1001202747
!!!NIFC-rismChildID: 990039322
!!!NIFC-islandoraID: pl-gd:57883
!!!URL-pdf-islandora: https://repozytorium.nifc.pl/islandora/object/pl-gd%3A57883/datastream/PDF/view
!!!URL-scan: https://polish.musicsources.pl/pl/lokalizacje/galeria/klocki-introligatorskie/655 @EN{Scan on Polish Music Sources Website} @PL{Skany w portalu Dziedzictwo Muzyki Polskiej w otwartym dostępie}
!!!ONB-nifc: UWAGA: zbiór na stronach: Canto: s. 637-653, Alto: s. do 486-501, Tenore: s. do 334-349, Bassus: s. do 182-197. Uwaga: utwory podzielone wg tytułów w spisach treści dostępnych na końcu każdej księgi głosowej.
!!!AIN: 1 alto 1 bass 1 soprn 1 tenor
!!!key: F
**kern	**text	**kern	**text	**kern	**text	**kern	**text
*part4	*part4	*part3	*part3	*part2	*part2	*part1	*part1
*staff4	*staff4	*staff3	*staff3	*staff2	*staff2	*staff1	*staff1
*I"BASSO	*	*I"TENORE	*	*I"ALTO	*	*I"CANTO	*
*I'B	*	*I'T	*	*I'A	*	*I'S	*
*ICvox	*	*ICvox	*	*ICvox	*	*ICvox	*
*Ibass	*	*Itenor	*	*Ialto	*	*Isoprn	*
*clefF3	*	*clefC3	*	*clefC2	*	*clefG2	*
*k[b-]	*	*k[b-]	*	*k[b-]	*	*k[b-]	*
*F:	*	*F:	*	*F:	*	*F:	*
*M2/1	*	*M2/1	*	*M2/1	*	*M2/1	*
*met(C)	*	*met(C)	*	*met(C)	*	*met(C)	*
=1-	=1-	=1-	=1-	=1-	=1-	=1-	=1-
*xywh-#194:1081,569,3442,846	*	*xywh-#346:1227,567,3390,844	*	*xywh-#498:1131,531,3413,848	*	*xywh-#650:1094,499,3499,869	*
!LO:TX:t=P:problem: podwójnie zapisany bemol: BB- B-	!	!	!	!LO:TX:t=P:problem: podwójnie zapisany bemol: B- b-	!	!	!
!LO:TX:a:t=Prima parta.	!	!LO:TX:a:t=Prima parta.	!	!LO:TX:a:t=Prima parta.	!	!LO:TX:a:t=Prima parta.	!
00r	.	00r	.	1c	SV`l	1cc	SV`l
.	.	.	.	4c/	car-	1cc	car-
.	.	.	.	4d/	-ro	.	.
.	.	.	.	4e/	del-	.	.
.	.	.	.	4c/	-la	.	.
=2-	=2-	=2-	=2-	=2-	=2-	=2-	=2-
.	.	.	.	2.f\	men-	2cc\	-ro
.	.	.	.	.	.	1cc	del-
.	.	.	.	4g\	-te au-	.	.
.	.	.	.	4a\	-ri-	.	.
.	.	.	.	4b-\	-ga	.	.
.	.	.	.	2.cc\	fie-	2a/	-la men-
=3-	=3-	=3-	=3-	=3-	=3-	=3-	=3-
1r	.	1r	.	.	.	1dd	-te
.	.	.	.	8b-\	.	.	.
.	.	.	.	8a\	.	.	.
!	!	!	!	!LO:N:acc=#	!	!	!
.	.	.	.	2bn\	.	.	.
1C	SV`l	1c	SV`l	2cc\	-di	1ee	au-
!	!	!	!	!LO:SIC:v:t=custos g	!	!	!
.	.	.	.	2g\	O	.	.
!	!	!	!	!LO:LB:g=original	!	!	!
=4-	=4-	=4-	=4-	=4-	=4-	=4-	=4-
*	*	*	*	*xywh-#498:1111,1134,3413,786	*	*	*
4C/	car-	1c	car-	2g\	bel-	2ee\	-ri-
4D/	-ro	.	.	.	.	.	.
4E/	del-	.	.	2g\	-la	2gg\	-ga
4C/	-la	.	.	.	.	.	.
2.F/	men-	2c/	-ro	0a	don-	1ff	fie-
.	.	1c\	del-	.	.	.	.
4G\	-te	.	.	.	.	.	.
=5-	=5-	=5-	=5-	=5-	=5-	=5-	=5-
4A\	au-	.	.	.	.	1ee	-di
4B-\	-ri-	.	.	.	.	.	.
2.c\	-ga	2A/	-la	.	.	.	.
.	.	1d	men-	0g	-na	1r	.
8B-\	fie-	.	.	.	.	.	.
8A\	.	.	.	.	.	.	.
!LO:N:acc=#	!	!	!	!	!	!	!
2Bn\	.	.	.	.	.	.	.
=6-	=6-	=6-	=6-	=6-	=6-	=6-	=6-
2c\	di	1e	-te	.	.	1cc	O
!LO:SIC:v:t=custos C	!	!	!	!	!	!	!
2C/	O	.	.	.	.	.	.
!LO:LB:g=original	!	!	!	!	!	!	!
*xywh-#194:1011,1215,3536,716	*	*	*	*	*	*	*
2C/	bel-	2e\	auri-	1r	.	2g/	bel-
2C/	-la	2g\	-ga	.	.	2e/	-la
=7-	=7-	=7-	=7-	=7-	=7-	=7-	=7-
1D	don-	1f	ſie-	2r	.	2.a/	don-
.	.	.	.	2f\	e	.	.
.	.	.	.	.	.	8g/	.
!	!	!	!	!	!	!LO:SIC:v:t=custos g	!
.	.	.	.	.	.	8f/	.
!	!	!	!	!	!	!LO:LB:g=original	!
*	*	*	*	*	*	*xywh-#650:1159,1151,3433,749	*
1C	-na	2e\	-di	2.cc\	pre(n)-	1g	.
.	.	2c/	O	.	.	.	.
.	.	.	.	4b-y\	-di il	.	.
=8-	=8-	=8-	=8-	=8-	=8-	=8-	=8-
2r	.	2c/	bel-	2a\	fre-	1e	-na
2C/	e	2c/	-la	4g\	-no	.	.
.	.	.	.	2cc\	al-	.	.
2.G\	pre(n)-	1d	don-	.	.	1r	.
.	.	.	.	8b-\	-te-	.	.
.	.	.	.	8a\	.	.	.
!	!	!	!	!LO:N:acc=#	!	!	!
.	.	.	.	2bn\	.	.	.
4G\	-di il	.	.	.	.	.	.
=9-	=9-	=9-	=9-	=9-	=9-	=9-	=9-
!	!	!LO:SIC:v:t=custos c	!	!	!	!	!
2A\	fre-	1c	-na	4cc\	-ro e	2r	.
.	.	.	.	4c/	pre(n)-	.	.
2A\	-no al-	.	.	4e/	-di	2cc\	e
.	.	.	.	4c/	il	.	.
!	!	!LO:LB:g=original	!	!	!	!	!
*	*	*xywh-#346:1135,1123,3482,793	*	*	*	*	*
2G\	-te-	2r	.	4d/	fre-	2.gg\	pre(n)-
.	.	.	.	4g\	-no al-	.	.
2C/	-ro	2c/	e	2.cc\	-te-	.	.
.	.	.	.	.	.	4ff\	-di il
=10-	=10-	=10-	=10-	=10-	=10-	=10-	=10-
1r	.	2.g\	pren-	.	.	2ee\	fre-
!	!	!	!	!LO:N:acc=#	!	!	!
.	.	.	.	8bn\	.	.	.
.	.	.	.	8a\	.	.	.
!	!	!	!	!LO:SIC:v:t=custos cc	!	!	!
!	!	!	!	!LO:N:acc=#	!	!	!
.	.	.	.	2bn\	.	4dd\	-no al-
.	.	4g\	-di il	.	.	2gg\	-te-
!	!	!	!	!LO:LB:g=original	!	!	!
*	*	*	*	*xywh-#498:1192,1737,3352,756	*	*	*
2r	.	2a\	fre-	2cc\	-ro	.	.
.	.	.	.	.	.	8ff\	.
.	.	.	.	.	.	8ee\	.
4r	.	2a\	-no al-	4r	.	2ff#X\	.
4D/	e pren-	.	.	4a\	e	.	.
=11-	=11-	=11-	=11-	=11-	=11-	=11-	=11-
2.G\	-di	2g\	-te-	2.b-y\	pren-	4gg\	-ro
.	.	.	.	.	.	8g/	al-
.	.	.	.	.	.	8a/	.
.	.	2d\	-ro	.	.	8b-/	.
.	.	.	.	.	.	8cc\	.
4F/	il	.	.	4a\	-di il	2dd\	.
2E/	fre-	2r	.	2g\	fre-	.	.
.	.	.	.	.	.	4cc#X\	-te-
4D/	-no al-	2.a\	On-	2f\	-no al-	2dd\	-ro
2d\	-te-	.	.	.	.	.	.
=12-	=12-	=12-	=12-	=12-	=12-	=12-	=12-
!	!	!	!	!	!	!LO:SIC:v:t=custos dd	!
.	.	.	.	2e/	-te-	1r	.
8c#X\	.	4a\	-de	.	.	.	.
!LO:N:acc=#	!	!	!	!	!	!	!
8Bn\	.	.	.	.	.	.	.
!LO:SIC:v:t=custos d	!	!	!	!	!	!	!
2c#X\	.	2e\	vi	2a\	-ro	.	.
!LO:LB:g=original	!	!	!	!	!	!LO:LB:g=original	!
*xywh-#194:1081,1814,3489,705	*	*	*	*	*	*xywh-#650:1202,1695,3379,728	*
2d\	-ro	1f	reg-	2r	.	2r	.
2.B\	On-	.	.	2.b-\	On-	2.dd\	On-
=13-	=13-	=13-	=13-	=13-	=13-	=13-	=13-
.	.	1f	-ga	.	.	.	.
4B-yX\	-de	.	.	4b-\	-de	4dd\	-de
2F/	vi	.	.	2a\	vi	2ccny\	vi
1G	reg-	2r	.	2g\	reg-	1b-	reg-
.	.	4.d\	il	2g\	ga	.	.
.	.	8B-/	deſ-	.	.	.	.
=14-	=14-	=14-	=14-	=14-	=14-	=14-	=14-
4.D/	-ga il	2f\	-tier	4r	.	4.a/	-ga il
.	.	.	.	4.f\	il	.	.
8BB-/	deſ-	.	.	.	.	8dd\	deſ-
2F/	-tier	4r	.	.	.	2cc\	-tier
.	.	.	.	8g\	deſ-	.	.
.	.	4.f\	il	4a\	-tier	.	.
4.B-\	il	.	.	4r	.	4.dd\	il
.	.	8d\	deſ-	.	.	.	.
.	.	4g\	-tier	4.b-\	il	.	.
8G\	deſ-	.	.	.	.	8b-/	deſ-
2d\	-tier il	4.f\	bian-	.	.	1ffny\	-tier
.	.	.	.	8a\	deſ-	.	.
!	!	!	!	!LO:N:acc=#	!	!	!
!	!	!	!	!LO:SIC:v:t=custos cc	!	!	!
.	.	.	.	4bn\	-tier	.	.
!	!	!LO:SIC:v:t=custos a	!	!	!	!	!
.	.	8g\	.	.	.	.	.
!	!	!LO:LB:g=original	!	!LO:LB:g=original	!	!	!
=15-	=15-	=15-	=15-	=15-	=15-	=15-	=15-
*	*	*xywh-#346:1248,1721,3359,741	*	*xywh-#498:1070,2218,3454,756	*	*	*
1cny	biã(n)-	2a\	.	1.cc	biã(n)-	.	.
.	.	2g\	-co	.	.	1ee	biã(n)-
1G	-co e`l	2r	.	.	.	.	.
.	.	2g\	e`l	2b-y\	-co e`l	2dd\	-co e`l
=16-	=16-	=16-	=16-	=16-	=16-	=16-	=16-
4A\	ne-	4e\	ne-	4a\	ne-	4cc#X\	ne-
4A\	-ro	4e\	-ro	4a\	-ro	4cc#\	-ro
2r	.	2r	.	4r	.	4r	.
.	.	.	.	4d/	E	4dd\	E
1r	.	4r	.	4e/	driz-	4g/	driz-
.	.	4d\	E	4f#X\	-zi	4a/	-zi
.	.	4G/	driz-	2g\	lor	4b-/	lor
!	!	!	!	!	!	!LO:SIC:v:t=custos dd	!
.	.	4A/	-zi	.	.	4ccny\	ver
!	!	!	!	!	!	!LO:LB:g=original	!
=17-	=17-	=17-	=17-	=17-	=17-	=17-	=17-
*	*	*	*	*	*	*xywh-#650:1094,2238,3466,738	*
1d	E	4B-/	lor	2r	.	4dd\	le
.	.	4c/	ver	.	.	4ee\	ce-
.	.	4d\	le	1a	E	4ff\	-leſ-
.	.	4e\	ce-	.	.	4gg\	-ti
4D/	driz-	4f\	-leſ-	.	.	2.aa\	ſe-
4E/	-zi	4g\	-ti	.	.	.	.
4F/	lor	1a\	ſe-	4A/	driz-	.	.
!LO:SIC:v:t=custos a	!	!	!	!	!	!	!
4G\	ver	.	.	4B-/	-zi	8gg\	.
.	.	.	.	.	.	8ff\	.
!LO:LB:g=original	!	!	!	!	!	!	!
=18-	=18-	=18-	=18-	=18-	=18-	=18-	=18-
*xywh-#194:1140,2355,3372,622	*	*	*	*	*	*	*
4A\	le	.	.	4c/	lor	4ee\	.
4B-\	ce-	.	.	4d/	ver	4dd\	.
4c\	-leſ-	4g\	.	4e/	le	8cc\	.
.	.	.	.	.	.	8b-/	.
4d\	-ti	4f\	.	4fny\	ce-	8a/	.
.	.	.	.	.	.	8b-/	.
1c	ſe-	4e\	.	4g\	-leſ-	1cc	.
.	.	2f\	.	4a\	-ti	.	.
.	.	.	.	2g\	ſe-	.	.
.	.	4e\	.	.	.	.	.
=19-	=19-	=19-	=19-	=19-	=19-	=19-	=19-
!	!	!LO:SIC:v:t=custos c	!	!	!	!	!
1F	-di	1f	-di	1a	-di	1cc	-di
!	!	!LO:LB:g=original	!	!	!	!	!
*	*	*xywh-#346:1186,2298,3431,721	*	*	*	*	*
1r	.	2c/	L`un	2r	.	2r	.
.	.	4r	.	4r	.	2cc\	L`un
!	!	!	!	!LO:SIC:v:t=custos b	!	!	!
.	.	4f\	con	4a\	con	.	.
!	!	!	!	!LO:LB:g=original	!	!	!
=20-	=20-	=20-	=20-	=20-	=20-	=20-	=20-
!	!	!	!	!LO:N:acc=#	!	!	!
*	*	*	*	*xywh-#498:1101,2770,3403,807	*	*	*
00r	.	4.d\	ri-	4.bn\	ri-	2r	.
.	.	8d\	-gi-	8b\	-gi-	.	.
.	.	4e\	-da	4cc\	-da	4r	.
.	.	4.f\	man	4.a\	man	4cc\	con
.	.	.	.	.	.	4.dd\	ri-
.	.	8d\	pet-	8f\	pet-	.	.
.	.	4.g\	-co-	4.b\	-co-	.	.
.	.	.	.	.	.	8dd\	-gi-
!	!	!	!	!	!	!LO:SIC:v:t=custos ee	!
.	.	.	.	.	.	2dd\	-da
.	.	8f#X\	-ti e	8a\	-ti e	.	.
.	.	4g\	fie-	4b\	fie-	.	.
!	!	!	!	!	!	!LO:LB:g=original	!
=21-	=21-	=21-	=21-	=21-	=21-	=21-	=21-
*	*	*	*	*	*	*xywh-#650:1224,2803,3346,706	*
.	.	8e\	-di	8g\	-di	4.ee\	man
.	.	8e\	per-	8g\	per-	.	.
.	.	4.g\	-coti-	4.cc\	-coti-	.	.
.	.	.	.	.	.	8dd\	pet-
.	.	.	.	.	.	4.ee\	-coti-
!	!	!	!	!LO:N:acc=#	!	!	!
.	.	8g#X\	-e	8bn\	-e	.	.
.	.	4a\	fie-	4cc\	fie-	.	.
.	.	.	.	.	.	8ff\	-e
.	.	8f#X\	-di	8a\	-di	4.dd\	fie-
.	.	8f#\	per-	8a\	per-	.	.
.	.	4.g#\	-co-	4.b\	-co-	.	.
.	.	.	.	.	.	8cc\	.
.	.	.	.	.	.	2dd\	.
.	.	8f#\	-ti e	8g\	-ti e	.	.
!	!	!LO:SIC:v:t=custos c	!	!LO:SIC:v:t=custos cc	!	!	!
!	!	!	!	!LO:N:acc=#	!	!	!
.	.	4g#\	fie	4bn\	fie	.	.
!	!	!LO:LB:g=original	!	!LO:LB:g=original	!	!	!
=22-	=22-	=22-	=22-	=22-	=22-	=22-	=22-
*	*	*xywh-#346:1093,2823,3575,731	*	*xywh-#498:1162,3342,3352,746	*	*	*
00r	.	2c/	-di	2cc\	-di	2ee\	-di
.	.	1fny	Se	1a	Se	1cc	Se
.	.	4.B-/	ri-	4.b-y\	ribel-	4.dd\	ribel-
.	.	8F/	-bel-	8a\	-lan-	8cc\	-lan-
=23-	=23-	=23-	=23-	=23-	=23-	=23-	=23-
.	.	4G/	-lan-	2.g\	-te	2.b-/	-te
.	.	4A/	-te	.	.	.	.
.	.	4B-/	tra-	.	.	.	.
.	.	4c/	-u-	4e/	.	4a/	.
.	.	4d\	-iar	4f\	tra-	4b-/	trau-
.	.	4e\	dal	4g\	-u-	4cc\	-iar
.	.	2f\	ve-	4a\	-iar	4dd\	.
.	.	.	.	2cc\	dal	4a/	dal
=24-	=24-	=24-	=24-	=24-	=24-	=24-	=24-
0r	.	2d\	-ro	.	.	2ff\	ve-
.	.	.	.	2b-\	ve-	.	.
.	.	1c	Ca-	.	.	2ee\	-ro
.	.	.	.	4a\	-ro	.	.
.	.	.	.	4g\	Ca-	2ee\	Ca-
.	.	.	.	2a\	-mi	.	.
!	!	!	!	!	!	!LO:SIC:v:t=custos cc	!
.	.	2B-/	-mi-	.	.	2dd\	-mi-
.	.	.	.	4g\	.	.	.
!	!	!	!	!	!	!LO:LB:g=original	!
=25-	=25-	=25-	=25-	=25-	=25-	=25-	=25-
*	*	*	*	*	*	*xywh-#650:1083,3336,3466,695	*
4r	.	4A/	-no	2a\	no	2cc#X\	-no
4A\	e	4e\	e	.	.	.	.
2d\	l`al-	2f#X\	l`al-	4r	.	4r	.
.	.	.	.	4a\	e	4dd\	e
!	!	!	!	!LO:N:acc=#	!	!	!
2G\	-tro	2g\	-tro	2bn\	l`al-	2dd\	l`al-
1c\	con	1e\	con	2cc\	-tro	2g/	-tro
=26-	=26-	=26-	=26-	=26-	=26-	=26-	=26-
.	.	.	.	2.c/	con	2g/	con
2F/	ſo-	2fny\	ſo-	.	.	2a/	ſo-
!	!	!	!	!LO:SIC:v:t=custos e	!	!	!
.	.	.	.	4c/	ſo-	.	.
!	!	!	!	!LO:LB:g=original	!	!	!
*	*	*	*	*xywh-#498:1039,3904,3454,725	*	*	*
1.E-X	-aue	1.g	-aue	1.e-X	-aue	1.b-	-aue
=27-	=27-	=27-	=27-	=27-	=27-	=27-	=27-
.	.	.	.	.	.	.	.
2E-yX/	im-	2g\	im-	2e-yX/	im-	2b-/	im-
1F	-pe-	1f	-pe-	1c	-pe-	1a	-pe-
=28-	=28-	=28-	=28-	=28-	=28-	=28-	=28-
!	!	!LO:SIC:v:t=custos g	!	!	!	!	!
2C/	-ro	1e	-ro	2c/	-ro	0g	-ro
2c\	D`am-	.	.	2eny/	D`am-	.	.
!LO:N:acc=#	!	!LO:LB:g=original	!	!	!	!	!
*	*	*xywh-#346:1217,3380,3379,731	*	*	*	*	*
2Bn\	-bro-	2r	.	2d/	-bro-	.	.
!LO:SIC:v:t=custos A	!	!	!	!	!	!	!
2c\	-ſia	2g\	D`am-	2e/	-ſia	.	.
!LO:LB:g=original	!	!	!	!	!	!	!
=29-	=29-	=29-	=29-	=29-	=29-	=29-	=29-
*xywh-#194:1058,2895,3454,693	*	*	*	*	*	*	*
2A\	paſ-	2f#X\	-bro-	2c/	paſ-	2r	.
2G\	-ci	2g\	-ſia	2d/	-ci	2dd\	D`am-
1r	.	2e\	paſ-	2r	.	2cc#X\	-bro-
.	.	2d\	-ci	2a\	D`am-	2dd\	-ſia
=30-	=30-	=30-	=30-	=30-	=30-	=30-	=30-
1r	.	2r	.	2g\	-bro-	2b-/	paſ-
.	.	4d\	ſe	1a	-ſia	2a/	-ci
.	.	4e\	gir	.	.	.	.
4D/	ſe	4fny\	drit-	.	.	1r	.
4Eny/	gir	4g\	-to il	.	.	.	.
4F/	drit-	1a\	ve-	2f\	paſ-	.	.
4G\	-to il	.	.	.	.	.	.
=31-	=31-	=31-	=31-	=31-	=31-	=31-	=31-
2A\	ve-	.	.	2e/	-ci	4ccny\	ſe
.	.	.	.	.	.	4dd\	gir
2A\	-di	2e\	-di	4c/	ſe	4ee\	drit-
.	.	.	.	4d/	gir	4ff\	-to il
2r	.	4c/	ſe	4e/	drit-	1gg	ve-
.	.	4d\	gir	4f\	-to il	.	.
2c\	D`am-	4e\	drit-	2g\	ve-	.	.
.	.	4f\	-to il	.	.	.	.
=32-	=32-	=32-	=32-	=32-	=32-	=32-	=32-
!LO:N:acc=#	!	!	!	!	!	!LO:SIC:v:t=custos dd	!
2Bn\	-bro-	2g\	ve-	2d/	-di	1gg	-di
2c\	-ſia	2e\	-di	4r	.	.	.
!	!	!	!	!LO:SIC:v:t=custos f	!	!	!
.	.	.	.	4g\	D`am-	.	.
!	!	!	!	!LO:LB:g=original	!	!LO:LB:g=original	!
*	*	*	*	*xywh-#498:1070,4415,3433,756	*	*xywh-#650:1170,3879,3368,684	*
2A\	paſ-	1r	.	2f#X\	-bro-	2r	.
2G\	-ci	.	.	2g\	-ſia	2dd\	D`am-
=33-	=33-	=33-	=33-	=33-	=33-	=33-	=33-
0r	.	2r	.	2e/	paſ-	2cc#X\	-bro-
.	.	2a\	D`am-	2d/	-ci	2dd\	-ſia
.	.	2g\	-bro-	2r	.	2b-/	paſ-
.	.	1a\	-ſia	4d/	ſe	2a/	-ci
.	.	.	.	4e/	gir	.	.
=34-	=34-	=34-	=34-	=34-	=34-	=34-	=34-
4D/	ſe	.	.	4fny\	drit-	1r	.
4E/	gir	.	.	4g\	-to il	.	.
!	!	!LO:SIC:v:t=custos e	!	!	!	!	!
4F/	drit-	2f\	paſ-	2.a\	ve-	.	.
4G\	-to il	.	.	.	.	.	.
!	!	!LO:LB:g=original	!	!	!	!	!
*	*	*xywh-#346:1135,3843,3493,803	*	*	*	*	*
1A	ve-	2e\	-ci	.	.	4ccny\	ſe
.	.	.	.	4b-y\	.	4dd\	gir
.	.	4c/	ſe	1cc\	.	4ee\	drit-
.	.	4d\	gir	.	.	4ff\	-to il
=35-	=35-	=35-	=35-	=35-	=35-	=35-	=35-
!LO:SIC:v:t=custos F	!	!	!	!	!	!	!
1G	-di	4e\	drit-	.	.	1gg	ve-
.	.	4f\	-to il	.	.	.	.
!	!	!	!	!LO:N:acc=#	!	!	!
.	.	2g\	ve-	2bn\	-di	.	.
!LO:LB:g=original	!	!	!	!	!	!LO:N:vis=00	!
*xywh-#194:1128,3436,3384,658	*	*	*	*	*	*	*
4F/	ſe	2a\	-di	2r	.	1%5cc	-di.
4G\	gir	.	.	.	.	.	.
4A\	drit-	2a\	il	4c/	ſe	.	.
4B-y\	-to il	.	.	4d/	gir	.	.
=36-	=36-	=36-	=36-	=36-	=36-	=36-	=36-
1c	ue-	4g\	ue-	4e/	drit-	.	.
.	.	2f\	.	4f\	-to il	.	.
.	.	.	.	2g\	ue-	.	.
.	.	4e\	.	.	.	.	.
!LO:N:vis=00	!	!LO:N:vis=00	!	!LO:N:vis=00	!	!	!
0.F	-di.	0.f	-di.	0.a	-di.	.	.
=37-	=37-	=37-	=37-	=37-	=37-	=37-	=37-
.	.	.	.	.	.	.	.
==	==	==	==	==	==	==	==
*-	*-	*-	*-	*-	*-	*-	*-
!!!system-decoration: [(s1,s2,s3,s4)]
!!!ENC: Filip Voros
!!!END: 2022-06-27
!!!ENC: Jan Barakat
!!!END: 2022-07-13
!!!YEC: Copyright 2022 Narodowy Instytut Fryderyka Chopina (https://polishscores.org)
!!!YEM: License CC-BY-4.0 (https://creativecommons.org/licenses/by/4.0)
!!!IIIF: https://repozytorium.nifc.pl/islandora/object/pl-gd%3A57883/datastream/IIIF/view
!!!ENC-IIIF: Zuzanna Daniec
!!!END-IIIF: 2022-09-17
